X: 1
T: Spanish Lady
R: polka
M: 2/4
L: 1/8
K: Dmaj
A/G/|:FA AB/c/|d>c de/f/|ge fd|BA A/B/A/G/|
FA AB/c/|d>c de/f/|ge fd|BA A2:|
fa a/b/a/f/|ed de|fa a>f|ed e2|
fa a/b/a/f/|ed de/f/|ge fd|BA A2:|


Tune 1117	Setting 28561

